X:67
T: DER WINTER HAT MIT KALTER HAND
N: F0166
O: Europa, Mitteleuropa, Deutschland
R: Jahreszeiten - Lied, Winter
M: 6/8
L: 1/8
K: G
d | decBcd | decB2
B | A2AAdc | c3B2
d | decBgf | fedd^c
B | BAded^c | ^c3d2
d | deBBcc | cdAAB
g | g2ddBG | DAFG2

